docs/.gitbook/assets/icon-anchor-16@dark.svg

<svg width="32" height="32" viewBox="0 0 16 16" fill="none" xmlns="http://www.w3.org/2000/svg">
<rect x="0" y="0" width="16" height="16" fill="#181c1f"/>
<path fill-rule="evenodd" clip-rule="evenodd" d="M8 2.5C7.17157 2.5 6.5 3.17157 6.5 4C6.5 4.82843 7.17157 5.5 8 5.5C8.82843 5.5 9.5 4.82843 9.5 4C9.5 3.17157 8.82843 2.5 8 2.5ZM5 4C5 2.34315 6.34315 1 8 1C9.65685 1 11 2.34315 11 4C11 5.39788 10.0439 6.57245 8.75 6.90549V13.4613C11.2591 13.1982 13.0888 11.6189 13.4391 9.5H12.75C12.3358 9.5 12 9.16421 12 8.75C12 8.33579 12.3358 8 12.75 8H14.25C14.6642 8 15 8.33579 15 8.75C15 12.4817 11.8081 15 8 15C4.17127 15 1 12.2448 1 8.75C1 8.33579 1.33579 8 1.75 8H3.25C3.66421 8 4 8.33579 4 8.75C4 9.16421 3.66421 9.5 3.25 9.5H2.56991C2.94286 11.4901 4.77427 13.1716 7.25 13.4572V6.90549C5.95608 6.57245 5 5.39788 5 4Z" fill="#fff"/>
</svg>

<svg xmlns="http://www.w3.org/2000/svg" width="32" height="32" fill="none" viewBox="0 0 16 16"><path fill="#181c1f" d="M0 0h16v16H0z"/><path fill="#fff" fill-rule="evenodd" d="M8 2.5a1.5 1.5 0 1 0 0 3 1.5 1.5 0 0 0 0-3M5 4a3 3 0 1 1 3.75 2.905v6.556c2.51-.263 4.339-1.842 4.69-3.961h-.69a.75.75 0 0 1 0-1.5h1.5a.75.75 0 0 1 .75.75C15 12.482 11.808 15 8 15c-3.829 0-7-2.755-7-6.25A.75.75 0 0 1 1.75 8h1.5a.75.75 0 0 1 0 1.5h-.68c.373 1.99 2.204 3.672 4.68 3.957V6.905A3 3 0 0 1 5 4" clip-rule="evenodd"/></svg>
